Sardi Arc/places/24/media-floppy.svg

<svg height="32" width="32" xmlns="http://www.w3.org/2000/svg" xmlns:xlink="http://www.w3.org/1999/xlink">
  <linearGradient id="a" gradientUnits="userSpaceOnUse" x1="21.875" x2="21.875" y1="48.000977" y2="40">
    <stop offset="0" stop-opacity="0"/>
    <stop offset=".5"/>
    <stop offset="1" stop-opacity="0"/>
  </linearGradient>
  <radialGradient id="b" cx="1" cy="44" gradientTransform="matrix(2 0 0 .8 36 8.8)" gradientUnits="userSpaceOnUse" r="5" xlink:href="#c"/>
  <linearGradient id="c">
    <stop offset="0"/>
    <stop offset="1" stop-opacity="0"/>
  </linearGradient>
  <radialGradient id="d" cx="1" cy="44" gradientTransform="matrix(2 0 0 .8 -13 -79.2)" gradientUnits="userSpaceOnUse" r="5" xlink:href="#c"/>
  <linearGradient id="e" gradientTransform="matrix(-.6635959 0 0 -.663596 30.930907 31.930914)" gradientUnits="userSpaceOnUse" x1="3.6261616" x2="41.968018" y1="2.5845432" y2="40.926399">
    <stop offset="0" stop-color="#040404"/>
    <stop offset="1" stop-color="#606060"/>
  </linearGradient>
  <linearGradient id="f" gradientTransform="matrix(-.6538595 0 0 -.6154114 31.019556 30.039396)" gradientUnits="userSpaceOnUse" x1="33.349056" x2="35.974056" y1="28.69302" y2="33.049397">
    <stop offset="0" stop-color="#010306"/>
    <stop offset="1" stop-color="#010306" stop-opacity=".39607844"/>
  </linearGradient>
  <linearGradient id="g" gradientTransform="matrix(-.6611427 0 0 -.6323554 31.553424 30.631326)" gradientUnits="userSpaceOnUse" x1="10" x2="31" y1="27.996471" y2="42">
    <stop offset="0" stop-color="#d4d4dc"/>
    <stop offset="1" stop-color="#848489"/>
  </linearGradient>
  <linearGradient id="h" gradientTransform="matrix(.6836263 0 0 -.6822177 .6184089 32.141879)" gradientUnits="userSpaceOnUse" x1="37.625" x2="37.625" y1="7.625" y2="3.4829895">
    <stop offset="0" stop-color="#010306"/>
    <stop offset="1" stop-color="#010306" stop-opacity="0"/>
  </linearGradient>
  <linearGradient id="i" gradientTransform="matrix(.6861557 0 0 .6767784 .5615012 -31.974903)" gradientUnits="userSpaceOnUse" x1="21.875" x2="21.875" y1="7.6059465" y2="18.51421">
    <stop offset="0" stop-color="#eeeeec"/>
    <stop offset="1" stop-color="#ffffff"/>
  </linearGradient>
  <linearGradient id="j" gradientTransform="matrix(-.6611427 0 0 -.6323554 31.553424 30.631326)" gradientUnits="userSpaceOnUse" x1="10" x2="31" y1="27.996471" y2="42">
    <stop offset="0" stop-color="#ffffff"/>
    <stop offset=".5" stop-color="#e6e6e6"/>
    <stop offset=".75" stop-color="#ffffff"/>
    <stop offset=".84166664" stop-color="#e1e1e1"/>
    <stop offset="1" stop-color="#ffffff"/>
  </linearGradient>
  <g opacity=".3" transform="matrix(.6808511 0 0 .75 -.6808512 -4)">
    <path d="m-11-48h10v8h-10z" fill="url(#d)" opacity="1" overflow="visible" transform="scale(-1)"/>
    <path d="m38 40h10v8h-10z" fill="url(#b)" opacity="1" overflow="visible"/>
    <path d="m11 40h27v8h-27z" fill="url(#a)" opacity="1" overflow="visible"/>
  </g>
  <path d="m28.097438 29.608322l-24.1948744 0c-.5524052 0-.5108859.041522-.5108859-.510884l0-24.1948756c0-.5524061-.0415193-.5108845.5108859-.5108845l22.0974364 0 2.608323 2.6083221 0 22.097438c0 .552406.04152.510884-.510885.510884z" style="stroke:#121212;stroke-width:.7819373;stroke-linecap:round;stroke-linejoin:round;overflow:visible;fill:url(#e)"/>
  <path d="m22.476816 12.500174l-14.9536348 0c-.5669387 0-1.0233552-.42958-1.0233552-.963183l0-7.0371646 17.000348 0 0 7.0371646c0 .533603-.456416.963183-1.023358.963183z" style="opacity:.26190473;fill:none;stroke-width:.99965209;stroke-linecap:round;stroke-linejoin:round;overflow:visible;stroke:url(#f)"/>
  <path d="m23.743676 12.609195c.199331-.024096.393108-.117846.537177-.237132.199749-.173574.330573-.431755.330573-.7114l0-7.2720886-13.222852 0 0 7.2720886c0 .5264.44135.948532.991715.948532l11.239422 0c .042997 0 .082438.005019.123965 0zm-1.343676-1.609195l-3.8 0 0-5 3.8 0 0 5z" style="stroke:#555753;stroke-width:.77714831;stroke-linecap:round;stroke-linejoin:round;overflow:visible;fill:url(#g)"/>
  <path d="m4-28h1v1h-1z" fill="#ffffff" opacity=".2" overflow="visible" transform="scale(1 -1)"/>
  <path d="m4-28h .5v.5h-.5z" fill="#010306" overflow="visible" transform="scale(1 -1)"/>
  <path d="m27-28h1v1h-1z" fill="#ffffff" opacity=".2" overflow="visible" transform="scale(1 -1)"/>
  <path d="m27-28h .5v.5h-.5z" fill="#010306" overflow="visible" transform="scale(1 -1)"/>
  <path d="m26.254394 29.754115l0-13.975039c0-.572698-.462004-1.033749-1.035883-1.033749l-18.4370234 0c-.5738782 0-1.0358816.461051-1.0358816 1.033749l0 13.975039 20.508788 0z" style="opacity:.6;fill:none;stroke-width:.49121204;stroke-linecap:round;stroke-linejoin:round;overflow:visible;stroke:url(#h)"/>
  <rect height="14.212356" rx=".5" style="stroke:#e2e2df;stroke-width:.78764486;stroke-linecap:round;stroke-linejoin:round;overflow:visible;fill:url(#i)" transform="scale(1 -1)" width="19.212355" x="6.3938227" y="-29.606178"/>
  <path d="m6.4996613 29.500339h19.0006947" style="fill:#3f6cff;fill-opacity:.75;fill-rule:evenodd;stroke:#575757;stroke-width:.99932253;stroke-linecap:round;stroke-linejoin:round"/>
  <path d="m6.4985337 19.497794h19.0030123" fill="none" stroke="#d3d7cf" stroke-linecap="round" stroke-linejoin="round" stroke-width=".99706733"/>
  <path d="m23.743676 12.609195c.199331-.024096.393108-.117846.537177-.237132.199749-.173574.330573-.431755.330573-.7114l0-7.2720886-13.222852 0 0 7.2720886c0 .5264.44135.948532.991715.948532l11.239422 0c .042997 0 .082438.005019.123965 0zm-1.343676-1.609195l-3.8 0 0-5 3.8 0 0 5z" style="opacity:.5;stroke:#555753;stroke-width:.77714831;stroke-linecap:round;stroke-linejoin:round;overflow:visible;fill:url(#j)"/>
  <path d="m6.4985337 24.501466h19.0030123" fill="none" stroke="#d3d7cf" stroke-linecap="round" stroke-linejoin="round" stroke-width=".99706733"/>
</svg>

<?xml version="1.0" encoding="UTF-8" standalone="no"?>
<!-- Created with Inkscape (http://www.inkscape.org/) -->

<svg
   xmlns:dc="http://purl.org/dc/elements/1.1/"
   xmlns:cc="http://creativecommons.org/ns#"
   xmlns:rdf="http://www.w3.org/1999/02/22-rdf-syntax-ns#"
   xmlns:svg="http://www.w3.org/2000/svg"
   xmlns="http://www.w3.org/2000/svg"
   xmlns:xlink="http://www.w3.org/1999/xlink"
   xmlns:sodipodi="http://sodipodi.sourceforge.net/DTD/sodipodi-0.dtd"
   xmlns:inkscape="http://www.inkscape.org/namespaces/inkscape"
   version="1.0"
   width="32"
   height="32"
   id="svg3221"
   inkscape:version="0.48.3.1 r9886"
   sodipodi:docname="system-floppy.svg">
  <metadata
     id="metadata44211">
    <rdf:RDF>
      <cc:Work
         rdf:about="">
        <dc:format>image/svg+xml</dc:format>
        <dc:type
           rdf:resource="http://purl.org/dc/dcmitype/StillImage" />
      </cc:Work>
    </rdf:RDF>
  </metadata>
  <sodipodi:namedview
     pagecolor="#ffffff"
     bordercolor="#666666"
     borderopacity="1"
     objecttolerance="10"
     gridtolerance="10"
     guidetolerance="10"
     inkscape:pageopacity="0"
     inkscape:pageshadow="2"
     inkscape:window-width="640"
     inkscape:window-height="480"
     id="namedview44209" />
  <defs
     id="defs3223">
    <linearGradient
       id="linearGradient2804">
      <stop
         id="stop2806"
         style="stop-color:#000000;stop-opacity:0"
         offset="0" />
      <stop
         id="stop2812"
         style="stop-color:#000000;stop-opacity:1"
         offset="0.5" />
      <stop
         id="stop2808"
         style="stop-color:#000000;stop-opacity:0"
         offset="1" />
    </linearGradient>
    <linearGradient
       x1="21.875"
       y1="48.000977"
       x2="21.875"
       y2="40"
       id="linearGradient3936"
       xlink:href="#linearGradient2804"
       gradientUnits="userSpaceOnUse" />
    <radialGradient
       cx="1"
       cy="44"
       r="5"
       fx="1"
       fy="44"
       id="radialGradient3934"
       xlink:href="#linearGradient2781"
       gradientUnits="userSpaceOnUse"
       gradientTransform="matrix(2,0,0,0.8,36,8.8)" />
    <linearGradient
       id="linearGradient2781">
      <stop
         id="stop2783"
         style="stop-color:#000000;stop-opacity:1"
         offset="0" />
      <stop
         id="stop2785"
         style="stop-color:#000000;stop-opacity:0"
         offset="1" />
    </linearGradient>
    <radialGradient
       cx="1"
       cy="44"
       r="5"
       fx="1"
       fy="44"
       id="radialGradient3932"
       xlink:href="#linearGradient2781"
       gradientUnits="userSpaceOnUse"
       gradientTransform="matrix(2,0,0,0.8,-13,-79.2)" />
    <linearGradient
       id="linearGradient6375">
      <stop
         id="stop6377"
         style="stop-color:#040404;stop-opacity:1"
         offset="0" />
      <stop
         id="stop6379"
         style="stop-color:#606060;stop-opacity:1"
         offset="1" />
    </linearGradient>
    <linearGradient
       x1="3.6261616"
       y1="2.5845432"
       x2="41.968018"
       y2="40.926399"
       id="linearGradient2475"
       xlink:href="#linearGradient6375"
       gradientUnits="userSpaceOnUse"
       gradientTransform="matrix(-0.6635959,0,0,-0.663596,30.930907,31.930914)" />
    <linearGradient
       id="linearGradient2388">
      <stop
         id="stop2390"
         style="stop-color:#010306;stop-opacity:1"
         offset="0" />
      <stop
         id="stop2392"
         style="stop-color:#010306;stop-opacity:0.39607844"
         offset="1" />
    </linearGradient>
    <linearGradient
       x1="33.349056"
       y1="28.69302"
       x2="35.974056"
       y2="33.049397"
       id="linearGradient2472"
       xlink:href="#linearGradient2388"
       gradientUnits="userSpaceOnUse"
       gradientTransform="matrix(-0.6538595,0,0,-0.6154114,31.019556,30.039396)" />
    <linearGradient
       id="linearGradient4235">
      <stop
         id="stop4237"
         style="stop-color:#d4d4dc;stop-opacity:1"
         offset="0" />
      <stop
         id="stop4239"
         style="stop-color:#848489;stop-opacity:1"
         offset="1" />
    </linearGradient>
    <linearGradient
       x1="10"
       y1="27.996471"
       x2="31"
       y2="42"
       id="linearGradient4731"
       xlink:href="#linearGradient4235"
       gradientUnits="userSpaceOnUse"
       gradientTransform="matrix(-0.6611427,0,0,-0.6323554,31.553424,30.631326)" />
    <linearGradient
       id="linearGradient2249">
      <stop
         id="stop2251"
         style="stop-color:#010306;stop-opacity:1"
         offset="0" />
      <stop
         id="stop2253"
         style="stop-color:#010306;stop-opacity:0"
         offset="1" />
    </linearGradient>
    <linearGradient
       x1="37.625"
       y1="7.625"
       x2="37.625"
       y2="3.4829895"
       id="linearGradient4727"
       xlink:href="#linearGradient2249"
       gradientUnits="userSpaceOnUse"
       gradientTransform="matrix(0.6836263,0,0,-0.6822177,0.6184089,32.141879)" />
    <linearGradient
       id="linearGradient2268">
      <stop
         id="stop2270"
         style="stop-color:#eeeeec;stop-opacity:1"
         offset="0" />
      <stop
         id="stop2272"
         style="stop-color:#ffffff;stop-opacity:1"
         offset="1" />
    </linearGradient>
    <linearGradient
       x1="21.875"
       y1="7.6059465"
       x2="21.875"
       y2="18.51421"
       id="linearGradient4725"
       xlink:href="#linearGradient2268"
       gradientUnits="userSpaceOnUse"
       gradientTransform="matrix(0.6861557,0,0,0.6767784,0.5615012,-31.974903)" />
    <linearGradient
       id="linearGradient2555">
      <stop
         id="stop2557"
         style="stop-color:#ffffff;stop-opacity:1"
         offset="0" />
      <stop
         id="stop2561"
         style="stop-color:#e6e6e6;stop-opacity:1"
         offset="0.5" />
      <stop
         id="stop2563"
         style="stop-color:#ffffff;stop-opacity:1"
         offset="0.75" />
      <stop
         id="stop2565"
         style="stop-color:#e1e1e1;stop-opacity:1"
         offset="0.84166664" />
      <stop
         id="stop2559"
         style="stop-color:#ffffff;stop-opacity:1"
         offset="1" />
    </linearGradient>
    <linearGradient
       x1="10"
       y1="27.996471"
       x2="31"
       y2="42"
       id="linearGradient4723"
       xlink:href="#linearGradient2555"
       gradientUnits="userSpaceOnUse"
       gradientTransform="matrix(-0.6611427,0,0,-0.6323554,31.553424,30.631326)" />
  </defs>
  <g
     id="layer1">
    <g
       id="g6333">
      <g
         transform="matrix(0.6808511,0,0,0.75,-0.6808512,-4)"
         id="g2822"
         style="opacity:0.3">
        <rect
           width="10"
           height="8"
           x="-11"
           y="-48"
           transform="scale(-1,-1)"
           id="rect1892"
           style="opacity:1;fill:url(#radialGradient3932);fill-opacity:1;fill-rule:nonzero;stroke:none;stroke-width:1;stroke-linecap:square;stroke-linejoin:round;marker:none;marker-start:none;marker-mid:none;marker-end:none;stroke-miterlimit:4;stroke-dasharray:none;stroke-dashoffset:1.20000057;stroke-opacity:1;visibility:visible;display:inline;overflow:visible" />
        <rect
           width="10"
           height="8"
           x="38"
           y="40"
           id="rect2789"
           style="opacity:1;fill:url(#radialGradient3934);fill-opacity:1;fill-rule:nonzero;stroke:none;stroke-width:1;stroke-linecap:square;stroke-linejoin:round;marker:none;marker-start:none;marker-mid:none;marker-end:none;stroke-miterlimit:4;stroke-dasharray:none;stroke-dashoffset:1.20000057;stroke-opacity:1;visibility:visible;display:inline;overflow:visible" />
        <rect
           width="27"
           height="8"
           x="11"
           y="40"
           id="rect2793"
           style="opacity:1;fill:url(#linearGradient3936);fill-opacity:1;fill-rule:nonzero;stroke:none;stroke-width:1;stroke-linecap:square;stroke-linejoin:round;marker:none;marker-start:none;marker-mid:none;marker-end:none;stroke-miterlimit:4;stroke-dasharray:none;stroke-dashoffset:1.20000057;stroke-opacity:1;visibility:visible;display:inline;overflow:visible" />
      </g>
      <path
         d="M 28.097438,29.608322 L 3.9025636,29.608322 C 3.3501584,29.608322 3.3916777,29.649844 3.3916777,29.097438 L 3.3916777,4.9025624 C 3.3916777,4.3501563 3.3501584,4.3916779 3.9025636,4.3916779 L 26,4.3916779 L 28.608323,7 L 28.608323,29.097438 C 28.608323,29.649844 28.649843,29.608322 28.097438,29.608322 z"
         id="rect1314"
         style="fill:url(#linearGradient2475);fill-opacity:1;fill-rule:nonzero;stroke:#121212;stroke-width:0.7819373;stroke-linecap:round;stroke-linejoin:round;marker:none;marker-start:none;marker-mid:none;marker-end:none;stroke-miterlimit:4;stroke-dasharray:none;stroke-dashoffset:0;stroke-opacity:1;visibility:visible;display:inline;overflow:visible" />
      <path
         d="M 22.476816,12.500174 L 7.5231812,12.500174 C 6.9562425,12.500174 6.499826,12.070594 6.499826,11.536991 L 6.499826,4.4998264 L 23.500174,4.4998264 L 23.500174,11.536991 C 23.500174,12.070594 23.043758,12.500174 22.476816,12.500174 z"
         id="rect2194"
         style="opacity:0.26190473;fill:none;fill-opacity:1;fill-rule:nonzero;stroke:url(#linearGradient2472);stroke-width:0.99965209;stroke-linecap:round;stroke-linejoin:round;marker:none;marker-start:none;marker-mid:none;marker-end:none;stroke-miterlimit:4;stroke-dasharray:none;stroke-dashoffset:0;stroke-opacity:1;visibility:visible;display:inline;overflow:visible" />
      <path
         d="M 23.743676,12.609195 C 23.943007,12.585099 24.136784,12.491349 24.280853,12.372063 C 24.480602,12.198489 24.611426,11.940308 24.611426,11.660663 L 24.611426,4.3885744 L 11.388574,4.3885744 L 11.388574,11.660663 C 11.388574,12.187063 11.829924,12.609195 12.380289,12.609195 L 23.619711,12.609195 C 23.662708,12.609195 23.702149,12.614214 23.743676,12.609195 z M 22.4,11 L 18.6,11 L 18.6,6 L 22.4,6 L 22.4,11 z"
         id="rect2192"
         style="fill:url(#linearGradient4731);fill-opacity:1;fill-rule:nonzero;stroke:#555753;stroke-width:0.77714831;stroke-linecap:round;stroke-linejoin:round;marker:none;marker-start:none;marker-mid:none;marker-end:none;stroke-miterlimit:4;stroke-dasharray:none;stroke-dashoffset:0;stroke-opacity:1;visibility:visible;display:inline;overflow:visible" />
      <rect
         width="1"
         height="1"
         x="4"
         y="-28"
         transform="scale(1,-1)"
         id="rect2278"
         style="opacity:0.2;fill:#ffffff;fill-opacity:1;fill-rule:nonzero;stroke:none;stroke-width:0.75;stroke-linecap:round;stroke-linejoin:round;marker:none;marker-start:none;marker-mid:none;marker-end:none;stroke-miterlimit:4;stroke-dasharray:none;stroke-dashoffset:0;stroke-opacity:1;visibility:visible;display:inline;overflow:visible" />
      <rect
         width="0.5"
         height="0.5"
         x="4"
         y="-28"
         transform="scale(1,-1)"
         id="rect2276"
         style="fill:#010306;fill-opacity:1;fill-rule:nonzero;stroke:none;stroke-width:0.75;stroke-linecap:round;stroke-linejoin:round;marker:none;marker-start:none;marker-mid:none;marker-end:none;stroke-miterlimit:4;stroke-dasharray:none;stroke-dashoffset:0;stroke-opacity:1;visibility:visible;display:inline;overflow:visible" />
      <rect
         width="1"
         height="1"
         x="27"
         y="-28"
         transform="scale(1,-1)"
         id="rect2280"
         style="opacity:0.2;fill:#ffffff;fill-opacity:1;fill-rule:nonzero;stroke:none;stroke-width:0.75;stroke-linecap:round;stroke-linejoin:round;marker:none;marker-start:none;marker-mid:none;marker-end:none;stroke-miterlimit:4;stroke-dasharray:none;stroke-dashoffset:0;stroke-opacity:1;visibility:visible;display:inline;overflow:visible" />
      <rect
         width="0.5"
         height="0.5"
         x="27"
         y="-28"
         transform="scale(1,-1)"
         id="rect2282"
         style="fill:#010306;fill-opacity:1;fill-rule:nonzero;stroke:none;stroke-width:0.75;stroke-linecap:round;stroke-linejoin:round;marker:none;marker-start:none;marker-mid:none;marker-end:none;stroke-miterlimit:4;stroke-dasharray:none;stroke-dashoffset:0;stroke-opacity:1;visibility:visible;display:inline;overflow:visible" />
      <path
         d="M 26.254394,29.754115 L 26.254394,15.779076 C 26.254394,15.206378 25.79239,14.745327 25.218511,14.745327 L 6.7814876,14.745327 C 6.2076094,14.745327 5.745606,15.206378 5.745606,15.779076 L 5.745606,29.754115 L 26.254394,29.754115 z"
         id="rect2247"
         style="opacity:0.6;fill:none;fill-opacity:1;fill-rule:nonzero;stroke:url(#linearGradient4727);stroke-width:0.49121204;stroke-linecap:round;stroke-linejoin:round;marker:none;marker-start:none;marker-mid:none;marker-end:none;stroke-miterlimit:4;stroke-dasharray:none;stroke-dashoffset:0;stroke-opacity:1;visibility:visible;display:inline;overflow:visible" />
      <rect
         width="19.212355"
         height="14.212356"
         rx="0.5"
         ry="0.5"
         x="6.3938227"
         y="-29.606178"
         transform="scale(1,-1)"
         id="rect2257"
         style="fill:url(#linearGradient4725);fill-opacity:1;fill-rule:nonzero;stroke:#e2e2df;stroke-width:0.78764486;stroke-linecap:round;stroke-linejoin:round;marker:none;marker-start:none;marker-mid:none;marker-end:none;stroke-miterlimit:4;stroke-dasharray:none;stroke-dashoffset:0;stroke-opacity:1;visibility:visible;display:inline;overflow:visible" />
      <path
         d="M 6.4996613,29.500339 L 25.500356,29.500339"
         id="path2264"
         style="fill:#3f6cff;fill-opacity:0.75;fill-rule:evenodd;stroke:#575757;stroke-width:0.99932253;stroke-linecap:round;stroke-linejoin:round;stroke-miterlimit:4;stroke-dasharray:none;stroke-opacity:1;display:inline" />
      <path
         d="M 6.4985337,19.497794 L 25.501546,19.497794"
         id="path2331"
         style="fill:none;fill-opacity:0.75;fill-rule:evenodd;stroke:#d3d7cf;stroke-width:0.99706733;stroke-linecap:round;stroke-linejoin:round;stroke-miterlimit:4;stroke-dasharray:none;stroke-opacity:1;display:inline" />
      <path
         d="M 23.743676,12.609195 C 23.943007,12.585099 24.136784,12.491349 24.280853,12.372063 C 24.480602,12.198489 24.611426,11.940308 24.611426,11.660663 L 24.611426,4.3885744 L 11.388574,4.3885744 L 11.388574,11.660663 C 11.388574,12.187063 11.829924,12.609195 12.380289,12.609195 L 23.619711,12.609195 C 23.662708,12.609195 23.702149,12.614214 23.743676,12.609195 z M 22.4,11 L 18.6,11 L 18.6,6 L 22.4,6 L 22.4,11 z"
         id="path7255"
         style="opacity:0.5;fill:url(#linearGradient4723);fill-opacity:1;fill-rule:nonzero;stroke:#555753;stroke-width:0.77714831;stroke-linecap:round;stroke-linejoin:round;marker:none;marker-start:none;marker-mid:none;marker-end:none;stroke-miterlimit:4;stroke-dasharray:none;stroke-dashoffset:0;stroke-opacity:1;visibility:visible;display:inline;overflow:visible" />
      <path
         d="M 6.4985337,24.501466 L 25.501546,24.501466"
         id="path6311"
         style="fill:none;fill-opacity:0.75;fill-rule:evenodd;stroke:#d3d7cf;stroke-width:0.99706733;stroke-linecap:round;stroke-linejoin:round;stroke-miterlimit:4;stroke-dasharray:none;stroke-opacity:1;display:inline" />
    </g>
  </g>
</svg>
